X: 100369
T: MR. MORTHLAND'S REEL
R: reel
B: K\"ohler's Violin Repository, v.3, 1885 p.247 #3
F: http://www.archive.org/details/klersviolinrepos03rugg
Z: 2012 John Chambers <jc:trillian.mit.edu>
M: C|
L: 1/8
K: Gm
|:\
vG3A BcdB | A3f AFcA | G2(GA) Bcdg | fdcA G/G/G G2 :|
vgdga gbag | fcfg fagf | gdga gbag | fdcA G/G/G G2 |
gdga gbag | fgag fdcf | (df)ga (gf)ga | fdcA G/G/G "_Fine."G2 "^D.C."|]

%%sep 2 1 500

